build/documents/DocOperationsSolid.svg

<svg xmlns="http://www.w3.org/2000/svg" fill="none" viewBox="0 0 24 24" focusable="false"><path d="M0 0H24V24H0z"/><path fill="#74767B" fill-rule="evenodd" d="M17.0001 3C18.6569 3 20.0001 4.34315 20.0001 6L20.0001 18C20.0001 19.6569 18.6569 21 17.0001 21L7.00684 21C5.34998 21 4.00684 19.6569 4.00684 18L4.00684 6C4.00684 4.34315 5.34998 3 7.00684 3L17.0001 3ZM10.4746 10.5059C10.6046 10.6459 10.7746 10.7159 10.9546 10.7159C11.1146 10.7159 11.2646 10.6659 11.3946 10.5459L13.4341 8.51714C13.7441 8.23714 13.7441 7.75714 13.4341 7.47714L11.3946 5.48605C11.1246 5.24605 10.7146 5.26605 10.4746 5.52605C10.2346 5.79605 10.2446 6.20605 10.5146 6.44605L11.3946 7.34714C11.2373 7.34714 11.1518 7.34623 11.0864 7.34554C10.9701 7.3443 10.9174 7.34374 10.6378 7.35017C8.62194 7.35017 6.98778 8.98433 6.98778 11.0002L6.98778 11.35C6.98778 11.709 7.27879 12 7.63778 12C7.99676 12 8.28778 11.709 8.28778 11.35L8.28778 11.0002C8.28778 9.7023 9.33991 8.65017 10.6378 8.65017L11.3985 8.65017L10.5146 9.58585C10.2546 9.82585 10.2346 10.2359 10.4746 10.5059ZM13.5191 13.4923C13.3891 13.3523 13.2191 13.2823 13.0391 13.2823C12.8791 13.2823 12.7291 13.3323 12.5991 13.4523L10.5597 15.481C10.2497 15.761 10.2497 16.241 10.5597 16.521L12.5991 18.5121C12.8691 18.7521 13.2791 18.7321 13.5191 18.4721C13.7591 18.2021 13.7491 17.7921 13.4791 17.5521L12.5991 16.651C12.7564 16.651 12.8419 16.6519 12.9073 16.6526C13.0236 16.6538 13.0763 16.6544 13.356 16.6479C15.3718 16.6479 17.006 15.0138 17.006 12.9979L17.006 12.6481C17.006 12.2891 16.715 11.9981 16.356 11.9981C15.997 11.9981 15.706 12.2891 15.706 12.6481L15.706 12.9979C15.706 14.2958 14.6538 15.3479 13.356 15.3479L12.5952 15.3479L13.4791 14.4123C13.7391 14.1723 13.7591 13.7623 13.5191 13.4923Z"/></svg>

<svg xmlns="http://www.w3.org/2000/svg" fill="none" viewBox="0 0 24 24" focusable="false"><path fill="#74767B" fill-rule="evenodd" d="M17 3c1.65 0 3 1.34 3 3v12c0 1.65-1.35 3-3 3H7c-1.65 0-3-1.35-3-3V6c0-1.66 1.35-3 3-3zm-6.53 7.5c.13.14.3.21.48.21.16 0 .31-.05.44-.17l2.04-2.03c.31-.28.31-.76 0-1.04l-2.04-1.99a.66.66 0 0 0-.92.04.65.65 0 0 0 .04.92l.88.9h-.31c-.11 0-.17 0-.45.01-2.01 0-3.65 1.63-3.65 3.65v.35c0 .35.29.65.65.65s.65-.3.65-.65V11c0-1.3 1.05-2.35 2.35-2.35h.76l-.88.93c-.26.24-.28.65-.04.92m3.04 2.99a.65.65 0 0 0-.48-.21c-.16 0-.31.05-.44.17l-2.04 2.03c-.31.28-.31.76 0 1.04l2.04 1.99c.27.24.68.22.92-.04a.65.65 0 0 0-.04-.92l-.88-.9h.31c.12 0 .17 0 .45-.01 2.02 0 3.65-1.63 3.65-3.65v-.35c0-.36-.29-.65-.65-.65s-.65.29-.65.65v.35c0 1.3-1.05 2.35-2.35 2.35h-.76l.88-.93c.26-.24.28-.65.04-.92"/></svg>
